common/src/main/resources/icons/plugins/resharper/AssemblyExplorer/NugetFolderUnloaded.svg

<!--
  - The MIT License (MIT)
  -
  - Copyright (c) 2015-2024 Elior "Mallowigi" Boukhobza
  -
  - Permission is hereby granted, free of charge, to any person obtaining a copy
  - of this software and associated documentation files (the "Software"), to deal
  - in the Software without restriction, including without limitation the rights
  - to use, copy, modify, merge, publish, distribute, sublicense, and/or sell
  - copies of the Software, and to permit persons to whom the Software is
  - furnished to do so, subject to the following conditions:
  -
  - The above copyright notice and this permission notice shall be included in all
  - copies or substantial portions of the Software.
  -
  - THE SOFTWARE IS PROVIDED "AS IS", WITHOUT WARRANTY OF ANY KIND, EXPRESS OR
  - IMPLIED, INCLUDING BUT NOT LIMITED TO THE WARRANTIES OF MERCHANTABILITY,
  - FITNESS FOR A PARTICULAR PURPOSE AND NONINFRINGEMENT. IN NO EVENT SHALL THE
  - AUTHORS OR COPYRIGHT HOLDERS BE LIABLE FOR ANY CLAIM, DAMAGES OR OTHER
  - LIABILITY, WHETHER IN AN ACTION OF CONTRACT, TORT OR OTHERWISE, ARISING FROM,
  - OUT OF OR IN CONNECTION WITH THE SOFTWARE OR THE USE OR OTHER DEALINGS IN THE
  - SOFTWARE.
  -->

<svg data-big="true" clip-rule="evenodd" fill-rule="evenodd" stroke-linejoin="round" stroke-miterlimit="1.4142" version="1.1"
     viewBox="0 0 24 24" width="16px" height="16px" xml:space="preserve" xmlns="http://www.w3.org/2000/svg">
<path fill="#BCAAA4"
      d="M20,18H4V8H20M20,6H12L10,4H4C2.89,4 2,4.89 2,6V18A2,2 0 0,0 4,20H20A2,2 0 0,0 22,18V8C22,6.89 21.1,6 20,6Z"/>
  <path
    d="m17.338 9.322a6.1865 6.1865 0 0 1 6.1865 6.1865 6.1865 6.1865 0 0 1 -6.1865 6.1865 6.1865 6.1865 0 0 1 -6.1865 -6.1865 6.1865 6.1865 0 0 1 6.1865 -6.1865m0 5.2585a.92797 .92797 0 0 0 -.92797 .92797 .92797 .92797 0 0 0 .92797 .92798 .92797 .92797 0 0 0 .92798 -.92798 .92797 .92797 0 0 0 -.92798 -.92797m-3.4026 0a.92797 .92797 0 0 0 -.92798 .92797 .92797 .92797 0 0 0 .92798 .92798 .92797 .92797 0 0 0 .92798 -.92798 .92797 .92797 0 0 0 -.92798 -.92797m6.8052 0a.92797 .92797 0 0 0 -.92798 .92797 .92797 .92797 0 0 0 .92798 .92798 .92797 .92797 0 0 0 .92798 -.92798 .92797 .92797 0 0 0 -.92798 -.92797z"
    style="fill:#BCAAA4;stroke-width:.61865"/>
</svg>

<svg xmlns="http://www.w3.org/2000/svg" xml:space="preserve" width="16" height="16" fill-rule="evenodd" stroke-linejoin="round" stroke-miterlimit="1.414" clip-rule="evenodd" data-big="true" viewBox="0 0 24 24"><path fill="#BCAAA4" d="M20 18H4V8h16m0-2h-8l-2-2H4c-1.11 0-2 .89-2 2v12a2 2 0 0 0 2 2h16a2 2 0 0 0 2-2V8a2 2 0 0 0-2-2"/><path d="M17.338 9.322a6.187 6.187 0 0 1 6.187 6.187 6.187 6.187 0 0 1-6.187 6.186 6.187 6.187 0 0 1-6.186-6.187 6.187 6.187 0 0 1 6.186-6.186m0 5.259a.93.93 0 0 0-.928.927.93.93 0 0 0 .928.928.93.93 0 0 0 .928-.928.93.93 0 0 0-.928-.927m-3.403 0a.93.93 0 0 0-.928.927.93.93 0 0 0 .928.928.93.93 0 0 0 .928-.928.93.93 0 0 0-.928-.927m6.806 0a.93.93 0 0 0-.928.927.93.93 0 0 0 .928.928.93.93 0 0 0 .928-.928.93.93 0 0 0-.928-.927" style="fill:#bcaaa4;stroke-width:.61865"/></svg>
